images/usecases/health-care/rehabilitation-center-2.svg

<svg width="285" height="210" viewBox="0 0 285 210" fill="none" xmlns="http://www.w3.org/2000/svg">
<rect x="13.75" y="32.7173" width="164.5" height="164.5" rx="82.25" stroke="#91A3BE" stroke-width="1.5"/>
<path d="M50 159.592H56.2598M142 159.592H135.551M56.2598 159.592H75.8359M56.2598 159.592V139.582M75.8359 105.815L56.2598 118.713V130.486M75.8359 105.815V81.3706L97.2103 70.3423L117.22 82.7349V105.815M75.8359 105.815V130.486M75.8359 159.592H117.22M75.8359 159.592V139.582M117.22 159.592H135.551M117.22 159.592V139.582M135.551 159.592V139.582M117.22 105.815L135.551 118.713V130.486M117.22 105.815V130.486M75.8359 135.375H87.2742M75.8359 135.375V130.486M75.8359 135.375V139.582M117.22 135.375H105.624M117.22 135.375V130.486M117.22 135.375V139.582M56.2598 130.486H75.8359M56.2598 130.486V139.582M56.2598 139.582H75.8359M117.22 130.486H135.551M135.551 130.486V139.582M117.22 139.582H135.551" stroke="#305680" stroke-width="4.55258" stroke-linecap="round" stroke-linejoin="round"/>
<path d="M103.464 159.592V144.964C103.464 144.754 103.294 144.584 103.084 144.584H90.1997C89.9902 144.584 89.8203 144.754 89.8203 144.964V159.592" stroke="#305680" stroke-width="4.55258"/>
<circle cx="96.6427" cy="135.489" r="2.72865" fill="#305680"/>
<circle cx="96.5685" cy="87.0553" r="2.72865" fill="#305680"/>
<path d="M95.7722 95.4688V105.133H103.39L109.415 114.228M95.7722 95.4688H103.39M95.7722 95.4688C83.2658 96.2646 84.5159 118.207 101.002 113.205" stroke="#305680" stroke-width="4.55258" stroke-linecap="round" stroke-linejoin="round"/>
<path d="M97.3086 0.467285V16.4673" stroke="#91A3BE" stroke-width="1.5"/>
<line x1="263.629" y1="111.928" x2="192.856" y2="111.928" stroke="#91A3BE" stroke-width="1.5"/>
<mask id="path-10-inside-1_10903_21852" fill="white">
<path d="M96.6276 15.461C109.37 15.429 121.993 17.9157 133.774 22.7788C145.556 27.6418 156.263 34.7857 165.285 43.801C174.306 52.8164 181.463 63.5262 186.346 75.317C191.229 87.1078 193.742 99.7478 193.741 112.513L192.394 112.513C192.394 99.9253 189.916 87.461 185.101 75.8343C180.286 64.2075 173.229 53.6467 164.333 44.7567C155.437 35.8667 144.878 28.8223 133.261 24.0269C121.644 19.2314 109.196 16.7793 96.631 16.8108L96.6276 15.461Z"/>
</mask>
<path d="M96.6276 15.461C109.37 15.429 121.993 17.9157 133.774 22.7788C145.556 27.6418 156.263 34.7857 165.285 43.801C174.306 52.8164 181.463 63.5262 186.346 75.317C191.229 87.1078 193.742 99.7478 193.741 112.513L192.394 112.513C192.394 99.9253 189.916 87.461 185.101 75.8343C180.286 64.2075 173.229 53.6467 164.333 44.7567C155.437 35.8667 144.878 28.8223 133.261 24.0269C121.644 19.2314 109.196 16.7793 96.631 16.8108L96.6276 15.461Z" fill="#B2BFD1" stroke="#91A3BE" stroke-width="2" mask="url(#path-10-inside-1_10903_21852)"/>
<path d="M274.243 121.949C268.796 121.949 264.377 117.524 264.377 112.063C264.377 106.603 268.796 102.178 274.243 102.178C279.691 102.178 284.109 106.603 284.109 112.063C284.109 117.524 279.691 121.949 274.243 121.949Z" fill="#F4F8FE" stroke="#91A3BE" stroke-width="1.5"/>
</svg>

<svg width="285" height="210" fill="none" xmlns="http://www.w3.org/2000/svg"><rect x="13.75" y="32.717" width="164.5" height="164.5" rx="82.25" stroke="#91A3BE" stroke-width="1.5"/><path d="M50 159.592h6.26m85.74 0h-6.449m-79.291 0h19.576m-19.576 0v-20.01m19.576-33.767L56.26 118.713v11.773m19.576-24.671V81.371L97.21 70.342l20.01 12.393v23.08m-41.384 0v24.671m0 29.106h41.384m-41.384 0v-20.01m41.384 20.01h18.331m-18.331 0v-20.01m18.331 20.01v-20.01m-18.331-33.767 18.331 12.898v11.773m-18.331-24.671v24.671m-41.384 4.889h11.438m-11.438 0v-4.889m0 4.889v4.207m41.384-4.207h-11.596m11.596 0v-4.889m0 4.889v4.207m-60.96-9.096h19.576m-19.576 0v9.096m0 0h19.576m41.384-9.096h18.331m0 0v9.096m-18.331 0h18.331" stroke="#305680" stroke-width="4.553" stroke-linecap="round" stroke-linejoin="round"/><path d="M103.464 159.592v-14.628a.38.38 0 0 0-.38-.38H90.2a.38.38 0 0 0-.38.38v14.628" stroke="#305680" stroke-width="4.553"/><circle cx="96.643" cy="135.489" r="2.729" fill="#305680"/><circle cx="96.569" cy="87.055" r="2.729" fill="#305680"/><path d="M95.772 95.469v9.664h7.618l6.025 9.095m-13.643-18.76h7.618m-7.618 0c-12.506.797-11.256 22.739 5.23 17.737" stroke="#305680" stroke-width="4.553" stroke-linecap="round" stroke-linejoin="round"/><path d="M97.309.467v16M263.629 111.928h-70.773" stroke="#91A3BE" stroke-width="1.5"/><mask id="a" fill="#fff"><path d="M96.628 15.461a96.714 96.714 0 0 1 37.146 7.318A96.864 96.864 0 0 1 165.285 43.8a97.058 97.058 0 0 1 21.061 31.516 97.196 97.196 0 0 1 7.395 37.196h-1.347a95.865 95.865 0 0 0-7.293-36.679 95.699 95.699 0 0 0-20.768-31.077 95.52 95.52 0 0 0-31.072-20.73 95.37 95.37 0 0 0-36.63-7.216l-.003-1.35Z"/></mask><path d="M96.628 15.461a96.714 96.714 0 0 1 37.146 7.318A96.864 96.864 0 0 1 165.285 43.8a97.058 97.058 0 0 1 21.061 31.516 97.196 97.196 0 0 1 7.395 37.196h-1.347a95.865 95.865 0 0 0-7.293-36.679 95.699 95.699 0 0 0-20.768-31.077 95.52 95.52 0 0 0-31.072-20.73 95.37 95.37 0 0 0-36.63-7.216l-.003-1.35Z" fill="#B2BFD1" stroke="#91A3BE" stroke-width="2" mask="url(#a)"/><path d="M274.243 121.949c-5.447 0-9.866-4.425-9.866-9.886 0-5.46 4.419-9.885 9.866-9.885 5.448 0 9.866 4.425 9.866 9.885 0 5.461-4.418 9.886-9.866 9.886Z" fill="#F4F8FE" stroke="#91A3BE" stroke-width="1.5"/></svg>
